X:1
T:Bringet meinen Herrn zur Ruh
T:Binget meinen Herrn zur Ruh Georg Böhm
T:Wim Looyestijn - 2018. May be freely copied for non-commercial use.
T:Wim Looyestijn - 2018. May be freely copied for non-commercial use.
T:Wim Looyestijn - 2018. May be freely copied for non-commercial use.
T:Wim Looyestijn - 2018. May be freely copied for non-commercial use.
C:Georg Böhm
C:1661 - 1733
Z:Wim Looyestijn - 2018. May be freely copied for non-commercial use.
%%score 1 { ( 2 4 ) | 3 }
L:1/8
Q:1/4=120
M:3/2
K:F
V:1 treble nm="MusicXML Part"
V:2 treble nm="MusicXML Part"
V:4 treble 
V:3 bass 
V:1
 z4 d4 A4 | F6 (G2 A4) | D12- | D6 E2 ^C4 | D12 | z12 | z4 F6 D2 | B6 (A2 B2) c2 | A3 B G8 | %9
w: 1. Brin- get|mei- nem *|Herrn|* * zur|Ruh,||Las- set|sei- nen * *|Leich- * *|
w: 8. Weg, o|Grab! mein *|Herz|* * ist|hier,||da will|ich den * *|Herrn * *|
 A3 B G8 | A6 G2 F4 | B2 A2 G6 F2 | F8 z4 | z12 | z4 F2 G2 A2 B2 | c8 ^c4- | c4 d6 e2 | e4 A6 G2 | %18
w: ||nam * schla- *|fen;||sein * Geist *|ging dem|* Him- mel|zu, al- le|
w: ||hin- * le- *|gen;||und * ihn, *|mei- ner|* See- len|Zier, tot und|
 F6 (E2 D4) | d6 c2 =B2 A2 | ^G8 A4 | z4 =B6 B2 | c6 =B2 A4 | z2 =B2 ^G6 A2 | A8 z4 | z12 | %26
w: Lei- den, *|al- le * *|Stra- fen|sind doch|schon * *|voll- en- det|nu.||
w: le- bend *|in mir * *|he- gen,|so hab'|ich * *|das Heil in|mir;||
 z4 A4 E4 | F6 (G2 A4) | D12- | D6 E2 ^C4 | D12 | z12 | z12 |] %33
w: Brin- get|mei- nen *|Herrn|* * zur|Ruh.|||
w: Weg, o|Grab! mein *|Herz|* * ist|hier.|||
V:2
 D8 ^C4 |"^Instrument change" D6 E2 ^C2 A,2 | %2
"^Instrument change" D2 E2 F2 G2"^Instrument change" A4- | %3
"^Instrument change" A2 G2"^Instrument change" F2 G2 E4 | %4
"^Instrument change" D2 E2 F2 G2"^Instrument change" A4 | %5
"^Instrument change" G2 F2"^Instrument change" E6 D2 | %6
"^Instrument change" [A,D]8"^Instrument change" z4 | %7
"^Instrument change" z4"^Instrument change" C2 D2 E2 G2 | %8
"^Instrument change" [A,F]4"^Instrument change" z4 G3 A | %9
"^Instrument change" [A,CF]4"^Instrument change" z4 G3 A | %10
"^Instrument change" C4 D2"^Instrument change" [^CE]2 [DF]4 | %11
"^Instrument change" D2 E2"^Instrument change" [FG]6 F2 |"^Instrument change" F6 A2 G2 B2- | %13
"^Instrument change" B2 A2"^Instrument change" G6 F2 |"^Instrument change" F4 C4 [FA]4 | %15
"^Instrument change" G2 C2 G2 A2 B4 |"^Instrument change" A2 G2"^Instrument change" F6 G2 | %17
"^Instrument change" E2 A,2 A2 G2 F2 E2 |"^Instrument change" F2 D2 [Ad]6 [G^c]2 | %19
"^Instrument change" d2 c2 =B2"^Instrument change" A2 [=B,^G]2 [A,A]2 | %20
"^Instrument change" E6 F2 E2 A2 |"^Instrument change" E2 F2 E6 D2 | %22
"^Instrument change" [A,C]2 [=B,D]2 [CE]2 [B,^G]2"^Instrument change" A2 D2 | %23
"^Instrument change" F4"^Instrument change" E2 D2 C2 =B,2 | %24
"^Instrument change" A,4"^Instrument change" A2 G2 F2 E2 | %25
"^Instrument change" D2 ^C2 D2"^Instrument change" B2 E2 [EA]2 | %26
"^Instrument change" [EF]4 [DF]4 [^CE]4 |"^Instrument change" D2 E2 F2 A2 [A,^C]4 | %28
"^Instrument change" D4 E2 F2"^Instrument change" G2 A2 | %29
"^Instrument change" G2 D2"^Instrument change" F2 G2 E4 |"^Instrument change" [D,D]12 | %31
"^Instrument change" D2 E2"^Instrument change" ^C6 D2 |"^Instrument change" [F,A,D]12 |] %33
V:3
 z12 | z4 D,4 A,,4 | B,,8 F,,4 | G,,4 A,,4 A,,,4 | B,,8 F,,4 | D,,4 A,,4 A,,,4 | D,,8 z4 | %7
w: |* x|6 6|* * x||||
 z4 E,,4 C,,4 | F,,4 z4 E,,4 | F,,4 z4 E,,4 | F,,6 E,,2 D,,4 | B,,4 C,4 C,,4 | F,,4 z4 E,4 | %13
w: 6 *|* 6|||* 4 3||
 F,4 C,8 | F,,12 | E,,12 | E,4 D,8 | ^C,12 | D,8 E,4 | F,6 E,2 D,4 | z4 E,4 C,4 | %21
w: ||6||6||6 * *|x 6|
 ^G,,6 ^F,,2 E,,4 | A,,8 F,4 | D,4 E,4 E,,4 | A,,,4 A,4 E,4 | F,6 G,2 A,4 | D,12 | z4 D,4 A,,4 | %28
w: |||* x *|6 * x|||
 B,,8 F,,4 | G,,4 A,,4 A,,,4 | B,,8 F,,4 | D,,4 A,,4 A,,,4 | D,,12 |] %33
w: |||||
V:4
 x12 | z4 [F,A,]4 [E,A,]4 | [D,G,]4 [B,D]4 [A,D]4 | [B,D]4 [A,D]4 [G,^C]4 | F,4 [B,D]4 [A,D]4 | %5
 [A,D]4 E,2 F,2 [G,^C]4 | G,4 F,4 x4 | x4 [G,C]4 [G,B,]4 | x8 [B,C]4 | x8 [B,C]4 | A,6 G,2 F,4 | %11
 [G,D]4 G,2 A,2 [B,E]4 | [B,C]4"^Instrument change" A,4 C4 | [CF]4 [CF]4 [B,E]4 | [A,C]8 C4 | %15
 [G,C]4 [G,C]4 [^CG]4 | [^CE]4 [A,-E]4 [A,D]4 | A,4 [A,E]4 [G,A,]4 | [F,A,]4 F2 E2 D4 | %19
 [DA]6 [CE]2 F4 | z4"^Instrument change" [^G,=B,]4 A,4 | =B,6"^Instrument change" A,2 ^G,4 | %22
 x8 A,4 | [A,=B,]4 [^G,B,]4 [E,G,]4 | A,4 [^CE]4 [G,C]4 | A,6 D4 ^C2 | A,4 A,4 A,4 | %27
 z4 [A,D]4 A,2 G,2 | F,4 [B,D]4 [A,D]4 | [B,D]4 [A,D]4 [G,^C]4 | A,4 G,4"^Instrument change" A,4 | %31
 [F,A,]4 [E,A,]4 [G,A,]4 | x12 |] %33

